X:1
T:Shake Hands with Mother Again
T:W. A. Berry
T:Shake Hands with Mother Again
T:Public Domain
T:Public Domain
C:W. A. Berry
Z:Public Domain
%%score 1 ( 2 3 )
L:1/8
M:6/8
K:Bb
V:1 treble 
V:2 bass 
V:3 bass 
V:1
 [DF] | [DB]>[DB][DB] [EG][DF][DB] | [Fd]2 [Fd] [DB]2 [DF]/[DF]/ | ([DB]>[DB])[DB] [Fd][Fc][=EB] | %4
w: 1.~If|I should be liv- ing when|Je- sus comes, And could|know * the day and the|
w: 2.~I’d|like to say, “Mo- ther, this|is your boy, Yo- u|left~when * you we- nt a-|
w: 3.~There’s|com- ing a time when I|can go home To meet|m- * y loved ones up|
w: 4.~There’ll|be no more sor- row or|pain to bear In that|ho- * me be- yond the|
 [Fc]3- [Fc]2 [EF] | [DB]>[DB][DB] [EG][DF][DB] | ([Fd]>[^Fd])[Fd] [GB]2 [=FB] | %7
w: hour, * I’d|like to be stand- ing at|mo- * ther’s tomb When|
w: way; * And|now, my dear mo- ther, it|gives~me * great joy To|
w: there; * There|I can see Je- sus up-|on * His throne In|
w: sky; * A|glor- i- ous thought when we|all * get there, We|
 [Fd]>[Fd][Fd] [DB]2 [Ec] | [DB]3- [DB]2 ||"^Refrain" [DF] | [DB]2 [DB] [Fd][Ec][DB] | %11
w: Je- sus comes in His|power. *|||
w: see you a- gain to-|day.” *|’Twill|be a won- der- ful,|
w: that bright ci- ty so|fair. *|||
w: ne- ver will say, “good-|bye.” *|||
 ([Fd][=E_d])[F=d] [DB]2 [DB] | [EB]>[EB][EB] [EB]2 [EG] | [DF]3- [DF]2 [EF] | %14
w: |||
w: hap- * py day, Up|there on the gold- en|strand, * When|
w: |||
w: |||
 [DB]>[DB][DB] [EG][DF][DB] | ([Fd]>[^Fd])[Fd] [GB]2 [=FB] | [Fd]>[Fd][Fd] [DB]2 [Ec] | %17
w: |||
w: I can hear Je- sus my|Sav- * ior say, “Shake|hands with mo- ther a-|
w: |||
w: |||
 [DB]3- [DB]2 |] %18
w: |
w: gain.” *|
w: |
w: |
V:2
 [B,,B,] | [B,,F,]>[B,,F,][B,,F,] [B,,B,][B,,B,][B,,F,] | %2
 [B,,B,]2 [B,,B,] [B,,F,]2 [B,,B,]/[B,,B,]/ | ([B,,F,]3/2[B,,F,]3/2) B,[A,C][G,C] | %4
 [F,A,]3- [F,A,]2 [F,A,] | [B,,B,]>[B,,F,][B,,F,] [B,,B,][B,,B,]B, | %6
 (B,>[A,C])[A,C] [G,D]2 [D,B,] | [F,B,]>[F,B,][F,B,] F,2 F, | [B,,F,]3- [B,,F,]2 || [B,,B,] | %10
 [B,,F,]2 [B,,F,] [B,,B,][B,,B,][B,,B,] | [B,,B,]2 [B,,B,] [B,,F,]2 [B,,F,] | %12
 [E,G,]>[E,G,][E,G,] [E,G,]2 [E,B,] | [B,,B,]3- [B,,B,]2 [F,A,] | %14
 [B,,B,]>[B,,F,][B,,F,] [B,,B,][B,,B,]B, | (B,>[A,C])[A,C] [G,D]2 [D,B,] | %16
 [F,B,]>[F,B,][F,B,] F,2 F, | [B,,F,]3- [B,,F,]2 |] %18
V:3
 x | x6 | x6 | x3 B, x2 | x6 | x5 B, | B,3/2 x9/2 | x3 F,2 F, | x5 || x | x6 | x6 | x6 | x6 | %14
 x5 B, | B,3/2 x9/2 | x3 F,2 F, | x5 |] %18

